static/ED.svg

<svg fill="none" height="114" viewBox="0 0 180 114" width="180" xmlns="http://www.w3.org/2000/svg"><path d="m.6.719999h67.36v12.960001h-52.16v34.4h46.88v13.12h-46.88v39.52h53.92v13.28h-69.12zm127.265 0c16.747 0 29.6 4.960001 38.56 14.880001 8.96 9.8133 13.44 23.6267 13.44 41.44 0 17.92-4.533 31.8933-13.6 41.92-8.96 10.027-21.76 15.04-38.4 15.04h-36.64v-113.280001zm0 100.480001c11.52 0 20.373-3.68 26.56-11.04 6.293-7.36 9.44-18.4 9.44-33.12 0-14.6133-3.147-25.4933-9.44-32.64-6.187-7.2533-15.04-10.88-26.56-10.88h-21.28v87.68z" fill="#fff"/></svg>

<svg width="180" height="114" viewBox="0 0 180 114" fill="none" xmlns="http://www.w3.org/2000/svg">
<path d="M0.6 0.719999H67.96V13.68H15.8V48.08H62.68V61.2H15.8V100.72H69.72V114H0.6V0.719999ZM127.865 0.719999C144.612 0.719999 157.465 5.68 166.425 15.6C175.385 25.4133 179.865 39.2267 179.865 57.04C179.865 74.96 175.332 88.9333 166.265 98.96C157.305 108.987 144.505 114 127.865 114H91.225V0.719999H127.865ZM127.865 101.2C139.385 101.2 148.238 97.52 154.425 90.16C160.718 82.8 163.865 71.76 163.865 57.04C163.865 42.4267 160.718 31.5467 154.425 24.4C148.238 17.1467 139.385 13.52 127.865 13.52H106.585V101.2H127.865Z" fill="white"/>
</svg>
